dist/uploads/catalog-sidebar-icons/13.svg

<svg width="30" height="30" fill="none" xmlns="http://www.w3.org/2000/svg"><g clip-path="url(#clip0)" fill="#FFC800"><path d="M22.5 20.0001a3.7542 3.7542 0 00-3.75-3.75h-2.5v-6.25a1.2499 1.2499 0 001.04-.5565L19.4189 6.25h-8.8378L12.71 9.4436A1.2506 1.2506 0 0013.75 10v6.25h-2.5a3.7543 3.7543 0 00-3.75 3.75v7.5H3.75v2.5h5a1.25 1.25 0 001.25-1.25v-8.75a1.2518 1.2518 0 01.3665-.8835 1.2518 1.2518 0 01.8835-.3665h2.5v11.25h2.5v-11.25h2.5c.3314.0004.6491.1322.8835.3665.2343.2344.3661.5521.3665.8835v8.75a1.2501 1.2501 0 001.25 1.25h5v-2.5H22.5v-7.5zM28.75 0H1.25C.5596 0 0 .5596 0 1.25v2.5C0 4.4404.5596 5 1.25 5h27.5C29.4404 5 30 4.4404 30 3.75v-2.5C30 .5596 29.4404 0 28.75 0z"/></g><defs><clipPath id="clip0"><path fill="#fff" d="M0 0h30v30H0z"/></clipPath></defs></svg>

<svg width="30" height="30" fill="none" xmlns="http://www.w3.org/2000/svg"><g clip-path="url(#clip0)" fill="#FFC800"><path d="M22.5 20a3.754 3.754 0 0 0-3.75-3.75h-2.5V10a1.25 1.25 0 0 0 1.04-.556l2.129-3.194H10.58l2.129 3.194a1.25 1.25 0 0 0 1.04.556v6.25h-2.5A3.754 3.754 0 0 0 7.5 20v7.5H3.75V30h5A1.25 1.25 0 0 0 10 28.75V20a1.252 1.252 0 0 1 .366-.883 1.252 1.252 0 0 1 .884-.367h2.5V30h2.5V18.75h2.5A1.252 1.252 0 0 1 20 20v8.75A1.25 1.25 0 0 0 21.25 30h5v-2.5H22.5V20zm6.25-20H1.25C.56 0 0 .56 0 1.25v2.5C0 4.44.56 5 1.25 5h27.5C29.44 5 30 4.44 30 3.75v-2.5C30 .56 29.44 0 28.75 0z"/></g><defs><clipPath id="clip0"><path fill="#fff" d="M0 0h30v30H0z"/></clipPath></defs></svg>
